packages/core/src/svgs/tokens/branded/QRDO.svg

<svg width="24" height="24" viewBox="0 0 24 24" fill="none" xmlns="http://www.w3.org/2000/svg">
<path d="M11.9999 5.11941C10.9804 5.11921 9.97359 5.34578 9.05231 5.78272C8.1311 6.21967 7.3186 6.85602 6.67367 7.64574C6.02875 8.43544 5.56756 9.35868 5.32347 10.3486C5.07941 11.3385 5.05857 12.3704 5.26249 13.3694C5.30353 13.5705 5.30456 13.7777 5.26552 13.9791C5.22648 14.1806 5.14814 14.3724 5.03497 14.5436C4.92179 14.7148 4.77602 14.8621 4.60593 14.977C4.43586 15.0918 4.24482 15.1722 4.04375 15.2131C3.84266 15.2541 3.63546 15.2551 3.43398 15.2162C3.23249 15.1771 3.04066 15.0988 2.86946 14.9856C2.69825 14.8725 2.55102 14.7266 2.43614 14.5566C2.32128 14.3866 2.24103 14.1955 2.19999 13.9944C1.92198 12.6252 1.93394 11.2129 2.23513 9.84868C2.53632 8.48441 3.12004 7.19838 3.94868 6.07351C4.7773 4.94864 5.83245 4.00989 7.04608 3.31776C8.25974 2.62564 9.60493 2.19551 10.995 2.0551C12.3851 1.91469 13.7892 2.06712 15.1167 2.50256C16.4442 2.93799 17.6657 3.64678 18.7026 4.58322C19.7394 5.51965 20.5685 6.66297 21.1365 7.93946C21.7044 9.21591 21.9985 10.5972 22 11.9945H18.8749C18.8749 10.171 18.1506 8.42236 16.8613 7.13305C15.572 5.84374 13.8233 5.11941 11.9999 5.11941Z" fill="url(#paint0_linear_364_11835)"/>
<path d="M19.9999 8.87563C20.2019 8.83766 20.4093 8.83987 20.6104 8.88217C20.8115 8.92446 21.0022 9.00599 21.1717 9.12212C21.3413 9.2382 21.4862 9.38666 21.5982 9.55874C21.7104 9.73097 21.7874 9.92362 21.825 10.1256C21.9412 10.7397 21.9999 11.3631 22 11.9882V11.9944C22 14.5443 21.0436 16.8694 19.4749 18.6382L20.0813 19.3694C20.2117 19.5277 20.3098 19.7103 20.3697 19.9066C20.4297 20.1029 20.4504 20.3091 20.4305 20.5134C20.4109 20.7176 20.3511 20.9161 20.2547 21.0972C20.1583 21.2785 20.0272 21.4389 19.8687 21.5694C19.7103 21.6999 19.5277 21.7979 19.3314 21.8579C19.1351 21.9178 18.9291 21.9385 18.7247 21.9187C18.5204 21.899 18.3219 21.8392 18.1408 21.7428C17.9597 21.6464 17.7993 21.5153 17.6688 21.3569L17.0624 20.6193C15.5432 21.5112 13.8156 21.9859 12.0539 21.9954C10.2924 22.0049 8.55955 21.5488 7.03084 20.6735C5.50214 19.7981 4.23178 18.5345 3.34837 17.0104C2.46494 15.4864 1.9998 13.756 2 11.9944H5.125C5.12479 13.1629 5.42242 14.3122 5.98976 15.3336C6.55711 16.3551 7.37543 17.2151 8.36749 17.8326C9.35949 18.4499 10.4926 18.8043 11.6597 18.8622C12.8267 18.9199 13.9892 18.6794 15.0375 18.1632L14.125 17.0569C13.9945 16.8985 13.8965 16.7159 13.8366 16.5196C13.7765 16.3234 13.7559 16.1171 13.7756 15.9128C13.8154 15.5003 14.0175 15.1204 14.3375 14.8569C14.6575 14.5933 15.0689 14.4676 15.4814 14.5074C15.8941 14.5474 16.2739 14.7495 16.5374 15.0693L17.4624 16.1882C18.0557 15.419 18.4784 14.5325 18.7026 13.5875C18.9267 12.6424 18.9471 11.6605 18.7625 10.7069C18.6857 10.3 18.7734 9.87914 19.0066 9.53701C19.2398 9.19474 19.5994 8.95917 20.0062 8.88189L19.9999 8.87563Z" fill="url(#paint1_linear_364_11835)"/>
<path d="M5.14374 12.5195C5.16875 12.8132 5.20624 13.0943 5.26249 13.3694C5.34537 13.7755 5.26352 14.1979 5.03497 14.5436C4.80641 14.8894 4.44985 15.1303 4.04375 15.2131C3.63763 15.296 3.21523 15.2142 2.86946 14.9856C2.52369 14.7571 2.28287 14.4006 2.2 13.9944C2.06875 13.3507 2 12.6819 2 11.9945H5.125" fill="#FFE000"/>
<defs>
<linearGradient id="paint0_linear_364_11835" x1="19.8125" y1="11.426" x2="2.8183" y2="15.3985" gradientUnits="userSpaceOnUse">
<stop stop-color="#2DDE41"/>
<stop offset="1" stop-color="#FFE000"/>
</linearGradient>
<linearGradient id="paint1_linear_364_11835" x1="27.6249" y1="14.8659" x2="5.74746" y2="15.0715" gradientUnits="userSpaceOnUse">
<stop offset="0.36" stop-color="#FF26EB"/>
<stop offset="0.66" stop-color="#137FF9"/>
<stop offset="1" stop-color="#27B3F9"/>
</linearGradient>
</defs>
</svg>

<svg xmlns="http://www.w3.org/2000/svg" width="24" height="24" fill="none" viewBox="0 0 24 24">
    <path fill="url(#QRDO__a)" d="M12 5.12a6.875 6.875 0 0 0-6.738 8.25 1.562 1.562 0 1 1-3.062.624 10 10 0 1 1 19.8-2h-3.125A6.875 6.875 0 0 0 12 5.12"/>
    <path fill="url(#QRDO__b)" d="M20 8.876a1.563 1.563 0 0 1 1.825 1.25q.174.923.175 1.862v.006a9.98 9.98 0 0 1-2.525 6.644l.606.731a1.562 1.562 0 0 1-2.412 1.988l-.607-.738A9.999 9.999 0 0 1 2 11.994h3.125a6.874 6.874 0 0 0 9.913 6.17l-.913-1.107a1.562 1.562 0 0 1 2.412-1.988l.925 1.12a6.85 6.85 0 0 0 1.3-5.482 1.563 1.563 0 0 1 1.244-1.825z"/>
    <path fill="#FFE000" d="M5.144 12.52q.036.438.118.85a1.563 1.563 0 1 1-3.062.624q-.198-.966-.2-2h3.125"/>
    <defs>
        <linearGradient id="QRDO__a" x1="19.813" x2="2.818" y1="11.426" y2="15.399" gradientUnits="userSpaceOnUse">
            <stop stop-color="#2DDE41"/>
            <stop offset="1" stop-color="#FFE000"/>
        </linearGradient>
        <linearGradient id="QRDO__b" x1="27.625" x2="5.747" y1="14.866" y2="15.072" gradientUnits="userSpaceOnUse">
            <stop offset=".36" stop-color="#FF26EB"/>
            <stop offset=".66" stop-color="#137FF9"/>
            <stop offset="1" stop-color="#27B3F9"/>
        </linearGradient>
    </defs>
</svg>
